X:1
T:ODA NI OFE FEE
T:Arr. Ohene Adu-Nti Tema Youth Choir 15th October, 2009
T:Based on Popular Ghanaian Ga Songs. Dedicated to TYC Members
T:Arranged for Soprano & Tenor (Duet), S. A. T. B. with Piano/Organ Accompainiment
T:ODA NI OFE FEE
T:©HallelujahMusic2009
T:©HallelujahMusic2009
T:©HallelujahMusic2009
T:©HallelujahMusic2009
T:©HallelujahMusic2009
T:©HallelujahMusic2009
T:©HallelujahMusic2009
T:©HallelujahMusic2009
T:©HallelujahMusic2009
T:©HallelujahMusic2009
T:©HallelujahMusic2009
T:©HallelujahMusic2009
T:©HallelujahMusic2009
T:©HallelujahMusic2009
T:©HallelujahMusic2009
T:©HallelujahMusic2009
T:©HallelujahMusic2009
T:©HallelujahMusic2009
T:©HallelujahMusic2009
C:Arr. Ohene Adu-Nti
Z:©HallelujahMusic2009
%%score 1 { ( 2 4 ) | ( 3 5 ) } { ( 6 8 ) | 7 }
L:1/8
Q:1/4=90
M:4/4
K:Bb
V:1 treble-8 nm="Tenor" snm="T"
V:2 treble nm="MusicXML Part"
V:4 treble 
V:3 bass 
V:5 bass 
V:6 treble nm="Piano" snm="Pno."
V:8 treble 
V:7 bass 
V:1
 z3[Q:1/4=90][Q:1/4=90] | z8 | z8 | z8 | z8 | z8 | z8 | z8 | z8 | z8 | z8 | z8 | z8 | z8 | z8 | %15
w: |||||||||||||||
 z8 | z4 z F FF | d2 d2 dG GG | z e e2 ec cc | fg/f/ ef/e/ d2 z B/B/ | cc GG A2 z f | f4- fg gg | %22
w: |O- da ni|O- fe fee O- da ni|O fe fee, O- da ni|O- * * fe _ _ fee mo- ko|be ni ta- mo Bo; O-|da _ ni O- fe|
 g4 z2 g2 | f2 z d/d/ ee AA | B4 z2 z d |: ee z c dd z d | ec cc d2 z2 | z8 | z8 | z e dc B=B BB | %30
w: fee Nun-|tso, mo- ko be ni ta- mo|Bo. Ye|ni- lee, ye suo- mo, ye|few ke he- wa- le|||Nun- tso, O- da ni O- fe|
 cc f2 e2 g2 | _a2 z g/g/ gg ee |1 d4 z2 z d :|2 d4 z4 || z8 | z8 | z8 | z8 | z8 | z8 | z8 | z8 | %42
w: fee, O- fe fee, Nun-|tso, mo- ko be- ni ta- mo|Bo. Ye|Bo.|||||||||
 z8 | z8 | z8 | z8 | z8 | z8 | z8 | z8 | z8 | z8 | z8 | z8 | z8 | z8 | z8 | z8 | z8 | z8 | z8 | %61
w: |||||||||||||||||||
 z8 | z8 | z8 | z4 z F FF | B6 G2 | F4 BB/B/ Bc | d6 c2 | B4 z4 | z8 | z8 | z8 | z8 | z8 | z8 | %75
w: |||O- da ni|O- fe|fee, Ye- su, o- da ni|O- fe|fee.|||||||
 z8 | z8 | z8 | z8 | z8 | z6 f2 | d2 d2 BBBc | B2 G2 FB Bc | d6 c2 |[K:C] B4 cc cd | e6 d2 | %86
w: |||||Na-|mo po wo- ke le baa|to O- he? O- da ni|O- fe|fee; Ye- suO^O- da ni|O- fe|
 c4 z4 | z8 | z8 | z8 | z4 z D DG ||[K:G] G3 E DG AB | B4 A2 B2 | c3 c B3 B | A6 z A | %95
w: fee.||||Won- jie O-|yi, Nun- tso, won jie O-|yi. Mo- ko|be ni ta- mo|Bo; ye|
 BB z B cc z c | dd dd e2 dc | B2 cB AA GF | G4 z4 | z8 | z8 | z8 | z8 | z8 | z8 | z8 | z8 | %107
w: ni- lee, ye suo- mo, ye|feo ke he- wa- le, Nun- *|tso, mo- ko be ni ta- mo|Bo|||||||||
[K:Bb] z8 | z8 | z8 | z8 | z8 | z8 | z8 | z8 | z8 | z8 | z8 | z5 |] %119
w: ||||||||||||
V:2
 z3 | z8 | z8 | z8 | z8 | z8 | z8 | z8 | z8 | z8 | z8 | z8 | z8 | z8 | z8 | z8 | z8 | z8 | z8 | %19
w: |||||||||||||||||||
 z8 | z8 | z8 | z8 | z8 | z8 |: z8 | z8 | z8 | z8 | z8 | z8 | z8 |1 z8 :|2 z4 z F FF || %34
w: ||||||||||||||O- da ni|
 d2 d2 dG GG | z e e2 ec cc | f2 e2 d3 B/B/ | cc GG A3 f | f4 z g gg | g6 g2 | f2 z d/d/ ee =AA | %41
w: O- fe fee, O- da ni|O- fe fee, O- da ni|O- fe fee, mo- ko|be ni ta- mo bo;- O|da ni O- fe|fee, Nun-|tso, mo- ko be- ni ta- mo|
 B4 z4 | d2 d2 d2 z2 | z e e2 e2 z2 | f2 e2 d3 B/B/ | ccGG A3 f | f4 z g gg | g6 g2 | %48
w: Bo.|O- fe fee|O- fe fee|O- fe fee mo- ko|be ni ta- mo Bo, O|da, ni O- fe|fee Nun-|
 f2 z d/d/ ee =AA | B6 z F | dF FF/{G}D/ DD z B | AG ^FF d3 d | ee cc ff BB | cB/B/ AG/G/ c3 F | %54
w: tso, mo- ko be- ni ta- mo|Bo. Bo|ji nwen ke shi- kpon bo- lo O|dro- moe^e- kple jen fee; O|mu o- wo a- de- sa mli nie^e-|tso su- su- ma ni hie ka; ye|
 GG z G AA z A | BB c^c d2 f2 | e2 z c/c/ dd AA | B4 z4 | z8 | z8 | z8 | z8 | z8 | z8 | z8 | z8 | %66
w: _ _||||||||||||
 z8 | z8 | z8 | B6 G2 | F4 z4 | d6 c2 | B4 z4 | z8 | z8 | z8 | z8 | B6 G2 | F4 z4 | d6 c2 | B4 z4 | %81
w: |||O- fe|fee|O- fe|fee|||||O- fe|fee|O- fe|fee.-|
 z2 z F/G/ BB/c/ de | ec ec d z z2 | d2 d2 d2 z2 |[K:C] B2 B2 cc cd | e2 gf e2 d2 | c4 z4 | z8 | %88
w: |||O- fe fee; O- da ni|O- da ni O- fee|fee.||
 z8 | z8 | z8 ||[K:G] z8 | z8 | z8 | z8 | z8 | z8 | z8 | z8 | z3 E DG AB | B z z2 A2 B2 | %101
w: |||||||||||Nun- tso, won jie O-|yi; Mo- ko|
 c z z c B3 B | A z z2 z2 z A | BB z B cc z c | dd dd e z dc | B z cB AA GF | G z z2 z2 z =F | %107
w: be ni ta- mo|bo ye|ni- lee, ye suo- mo, ye|feo, ke he- wa- le, Nun- *|tso, mo- ko be ni ta- mo|Bo. Bo|
[K:Bb] dF FF/{G}D/ DD z B | AG ^FF d3 d | ee cc ff BB | cB/B/ AG/G/ c3 F | GG z G AA z A | %112
w: ji nwen ke shi- kpon bo- lo O|dro- moe^e- kple jen fee; O|mu o- wo a- de- sa mli nie^e-|tso su- su- ma ni hie ka; ye|_ _|
 BB c^c d2 f2 | e2 z c/c/ dd AA | B4 z4 | z8 | z8 | z8 | z5 |] %119
w: |||||||
V:3
 z3 | z8 | z8 | z8 | z8 | z8 | z8 | z8 | z8 | z8 | z8 | z8 | z8 | z8 | z8 | z8 | z8 | z8 | z8 | %19
 z8 | z8 | z8 | z8 | z8 | z8 |: z8 | z8 | z8 | z8 | z8 | z8 | z8 |1 z8 :|2 z4 z2 z A, || %34
 B,2 C2 B,2 z =B, | C2 C2 CF EA, | B,2 A,2 B,2 DD | =EE CC C2 z2 | B,2 A,A, B, z z2 | %39
 B,2 =B,2 C2 _B,2 | B,2 z =B,/B,/ CC A,A, | F,4 z4 | B,2 C2 B,2 z2 | C2 C2 C2 z2 | B,2 A,2 B,2 DD | %45
 =EECC C2 z2 | B,2 A,A, B,F ED | B,2 =B,2 C2 _B,2 | B,2 z =B,/B,/ CC A,A, | B,6 z F, | %50
 DF, F,F,/{G,}D,/ D,D, z B, | A,G, ^F,F, D3 =B, | CC FF B,C DD | G,G,/G,/ CB,/B,/ A,3 B, | %54
 B,B, C2 CC D2 | DD CB, A,2 =B,2 | C2 z G,/G,/ B,B, A,A, | F,4 z4 | z8 | z8 | z8 | z8 | z8 | z8 | %64
 z8 | z8 | z8 | z8 | z8 | D6 B,2 | B,4 z4 | F6 E2 | D4 z4 | z8 | z8 | z8 | z8 | D6 B,2 | B,4 z4 | %79
 F6 E2 | D4 z4 | z2 z B,/B,/ DD/E/ FG | GE GE F z z2 | B,2 B,2 B,2 z2 |[K:C] D2 D2 CC CC | %85
 C2 ED C2 B,2 | G,4 z4 | z8 | z8 | z8 | z8 ||[K:G] z8 | z8 | z8 | z8 | z8 | z8 | z8 | z8 | %99
 z4 z B, CG, | G, z z2 C2 ^G,2 | A, z z A, G,3 G, | F, z z2 z2 z D | DD z D DD z D | %104
 B,B, B,B, C z B,G, | G, z A,^G, A,A, B,A, | B, z z2 z2 z =F, |[K:Bb] DF, F,F,/{G,}D,/ D,D, z B, | %108
 A,G, ^F,F, D3 =B, | CC FF B,C DD | G,G,/G,/ CB,/B,/ A,3 B, | B,B, C2 CC D2 | DD CB, A,2 =B,2 | %113
 C2 z G,/G,/ B,B, A,A, | F,4 z4 | z8 | z8 | z8 | z5 |] %119
V:4
 x3 | x8 | x8 | x8 | x8 | x8 | x8 | x8 | x8 | x8 | x8 | x8 | x8 | x8 | x8 | x8 | x8 | x8 | x8 | %19
w: |||||||||||||||||||
 x8 | x8 | x8 | x8 | x8 | x8 |: x8 | x8 | x8 | x8 | x8 | x8 | x8 |1 x8 :|2 z4 z E DC || %34
w: |||||||||||||||
 F2 ^F2 G=F ED | z G G2 FA GF | F2 F2 F2 GG | GG =EE F3 z | F2 FF F z z2 | G2 F2 E2 G2 | %40
w: ||||(Nun- tso, O- da)|(O- fe fee) Nun-|
 _A2 z G/G/ GF EE | D4 z4 | F2 ^F2 G2 z2 | z G G2 F2 z2 | F2 F2 F2 GG | GG=EE F3 z | F2 FF FG GG | %47
w: tso, mo- ko be ni ta- mo|Bo.|||||Nun- tso O- da ni O- fe|
 G2 F2 E2 G2 | _A2 z G/G/ GF EE | D6 z F | dF FF/{G}D/ DD z B | AG ^FF d3 G | GG AA BA GF | %53
w: feeO^O- fe fee, Nun-|tso, mo- ko be ni ta- mo|Bo. *||||
 =EE/E/ EE/E/ F3 D | EE z =E FF z ^F | GG GG ^F2 G2 | G2 z =E/E/ FF _EE | D4 z4 | x8 | x8 | x8 | %61
w: |ni- lee ye suo- mo ye|feo ke he- wa- le, Nun-|tso, mo- ko be- ni ta- mo|Bo.||||
 x8 | x8 | x8 | x8 | x8 | x8 | x8 | x8 | F6 E2 | D4 z4 | B6 A2 | F4 z4 | x8 | x8 | x8 | x8 | %77
w: ||||||||||||||||
 F6 E2 | D4 z4 | B6 A2 | F4 z4 | z2 z D/E/ FF/G/ Bc | cG cG BE E=E | F2 F2 F2 z2 | %84
w: ||||mo- ko be, mo- ko be jen|ni _ ta- mo bo O- da ni|O- fe fee;-|
[K:C] D2 D2 EE E^F | G6 F2 | E4 z4 | x8 | x8 | x8 | x8 ||[K:G] x8 | x8 | x8 | x8 | x8 | x8 | x8 | %98
w: ||||||||||||||
 x8 | z3 C B,E E_E | D z z2 E2 E2 | E z z E/D/ ^C3 C | D z z2 z2 z F | GG z G FF z F | %104
w: ||||||
 GG F=F E z FE | D z EE/D/ ^CC DD | D z z2 z2 z =F |[K:Bb] dF FF/{G}D/ DD z B | AG ^FF d3 G | %109
w: |||||
 GG AA BA GF | =EE/E/ EE/E/ F3 D | EE z =E FF z ^F | GG GG ^F2 G2 | G2 z =E/E/ FF _EE | D4 z4 | %115
w: ||ni- lee ye suo- mo ye|feo ke he- wa- le, Nun-|tso, mo- ko be- ni ta- mo|Bo.|
 x8 | x8 | x8 | x5 |] %119
w: ||||
V:5
 x3 | x8 | x8 | x8 | x8 | x8 | x8 | x8 | x8 | x8 | x8 | x8 | x8 | x8 | x8 | x8 | x8 | x8 | x8 | %19
 x8 | x8 | x8 | x8 | x8 | x8 |: x8 | x8 | x8 | x8 | x8 | x8 | x8 |1 x8 :|2 z8 || B,2 A,2 G,2 z2 | %35
 C2 B,2 A,F, F,E, | D,2 C,2 B,,2 G,G, | C,C, C,C, F,2 E,2 | D,2 C,C, B,, z z2 | E,2 G,,2 C,2 E,2 | %40
 D,2 z G,/G,/ C,C, F,F, | B,,4 z4 | B,2 A,2 G,2 z2 | C2 B,2 A,2 z2 | D,2 C,2 B,,2 G,G, | %45
 C,C,C,C, F,2 E,2 | D,2 C,2 B,,=B,, C,D, | E,2 G,,2 C,2 E,2 | D,2 z G,/G,/ C,C, F,F, | B,,6 z F, | %50
 DF, F,F,/{G,}D,/ D,D, z B, | A,G, ^F,F, D3 G, | C,C, F,E, D,D, G,G, | C,C,/C,/ C,C,/C,/ F,3 B,, | %54
 E,E, C,2 F,F, D,2 | G,F, E,E, D,2 G,2 | C,2 C,C, F,F, F,,F,, | B,,4 z4 | x8 | x8 | x8 | x8 | x8 | %63
 x8 | x8 | x8 | x8 | x8 | x8 | B,,6 B,,2 | B,,4 z4 | F,6 F,2 | B,,4 z4 | x8 | x8 | x8 | x8 | %77
 B,,6 B,,2 | B,,4 z4 | F,6 F,2 | B,,4 z4 | z8 | z4 z G, G,_G, | F,2 F,2 F,2 z2 | %84
[K:C] G,2 G,2 G,A, A,_A, | G,6 G,2 | C,4 z4 | x8 | x8 | x8 | x8 ||[K:G] x8 | x8 | x8 | x8 | x8 | %96
 x8 | x8 | x8 | z8 | z8 | z8 | z4 z2 z D, | G,G, z G, A,A, z A, | B,B, B,B, C z B,,C, | %105
 D, z E,E, A,,A,,D,D, | G,, z z2 z2 z =F, |[K:Bb] DF, F,F,/{G,}D,/ D,D, z B, | A,G, ^F,F, D3 G, | %109
 C,C, F,E, D,D, G,G, | C,C,/C,/ C,C,/C,/ F,3 B,, | E,E, C,2 F,F, D,2 | G,F, E,E, D,2 G,2 | %113
 C,2 C,C, F,F, F,,F,, | B,,4 z4 | x8 | x8 | x8 | x5 |] %119
V:6
 d/^c/ d B | F4- Fd/^c/ dB | G4- Ge/d/ ec/^c/ | d3 d/c/ =B3 B/A/ | G2 GA/B/ A3 f | f6- fg/g/ | %6
 g6 ga/b/ | [_ABdf] z z [G=Bd]/[GBd]/ [Gce]g[cfa]c' | [Bdfb][ef][df][cf] [Bdf][EF][DF][CF] | %9
 d4- dGGG | e4- e[FAc][FAc][FAc] | [FBf]2 [FAe]2 [FBd]2 [DGB]2 | [=EGc]2 [CEG]2 [CFA]4 | %13
 f4- f[fg][eg][=Bdg] | g6 [_Beg]2 | [F_ABdf]2 z [G=Bd]/[GBd]/ [Gce][Gce][CEF=A][CEFA] | %16
 B4 x [EF][DF][A,CF] | d4- dGGG | e4- e[FAc][FAc][FAc] | [FBf]2 [FAe]2 [FBd]2 [DGB]2 | %20
 [=EGc]2 [CEG]2 [CFA]4 | f4- f[fg][eg][=Bdg] | g6 [_Beg]2 | %23
 [F_ABdf]2 z [G=Bd]/[GBd]/ [Gce][Gce][CEF=A][CEFA] | B4 x2 z [G=Bd] |: %25
 [Gce][Gce] z [FAc] [FBd][FBd] z [G=Bd] | [Gce][EGc] z [FAc] [FBd][FBd] z [D^FA] | %27
 [DGB][DGB] z [D^FA] [DGB][DGB] z [DGB] | [=EGc][CEG] z [CEG] [FAc][FAc] z [FAcf] | %29
 f4- f[fg][eg][=Bdg] | g6 [_Beg]2 | [F_ABdf]2 z [G=Bd]/[GBd]/ [Gce][Gce][CEF=A][CEFA] |1 %32
 B4 x2 z [G=Bd] :|2 B4 x z z2 || z8 | z8 | z8 | z8 | z8 | z8 | z8 | z4 z [EF][DF][CF] | d4- dGGG | %43
 e4- e[FAc][FAc][FAc] | [FBf]2 [FAe]2 [FBd]2 [DGB]2 | [=EGc]2 [CEG]2 [CFA]4 | f4- f[fg][eg][=Bdg] | %47
 g6 [_Beg]2 | [F_ABdf]2 z [G=Bd]/[GBd]/ [Gce][Gce][CEF=A][CEFA] | [FB]6 z F | dF FF/{G}D/ DDzB | %51
 AG^FF d3 [G=Bd] | [Gce]2 z [FAc] [FAdf]2 z [DFB] | [=EGc][EGB][CEA][CEG] [CFAc]3 [DF] | %54
 G/B,/E/G/ c/C/=E/G/ A/C/F/A/ d/D/^F/A/ | B/D/G/B/ c/E/G/^c/ d2 f2 | e2 c2 d2 A2 | f3 g ff-fg | %58
 fffd f4 | [df]3 [eg] [df] [df]2 [Beg] | [Acf]2 [GBe]2 [^FAd]2 [FAc]2 | [DGBd]2 [D^FAc]2 B2 c2 | %62
 [C=EGB]2 [B,EG]2 [A,CF]G/A/ B/c/d/e/ | f3 e d d2 e | dfcd .[DB].[FA].[EG].[A,CF] | %65
 .[DFB]2 z d/f/ .b.[df].[Bg].[Ge] | .d.f.[db].[ca] .[db]z.[ce].[B=e] | %67
 .[Bdf]B/A/ .BF/=E/ .[DF].[FA] .[Ac]A/F/ | .[DFB]d/^c/ .dB/A/ .B.[DF].[^C=E].[=C_E] | %69
 .[B,D].[DF] .[DFB]d/f/ .b.[df].[Bg].[Ge] | .d.f.[db].[ca] .[db]z.[EB].[=Ec] | %71
 .[FBd]B/A/ .BF/=E/ .[DF].[FA] .[Ac]A/F/ | .[DFB]d/^c/ .dB/A/ .[DB].[FA].[EG].[A,CF] | %73
 .[DFB]2 z d/f/ .b.[df].[Bg].[Ge] | .d.f.[db].[ca] .[db]z.[ce].[B=e] | %75
 .[Bdf]B/A/ .BF/=E/ .[DF].[FA] .[Ac]A/F/ | .[DFB]d/^c/ .dB/A/ .B.[DF].[^C=E].[=C_E] | %77
 .[B,D].[DF] .[DFB]d/f/ .b.[df].[Bg].[Ge] | .d.f.[db].[ca] .[db]z.[EB].[=Ec] | %79
 .[FBd]B/A/ .BF/=E/ .[DF].[FA] .[Ac]A/F/ | .[DFB]d/^c/ .dB/A/ .[DB].[FA].[EG].[A,CF] | %81
 .[DFB]F/=E/ .[DF][DF]/[_EG]/ .[DFB][B,D]/[CE]/ .[DF].[EG] | %82
 .[EG].[CE].[EG].[CE] .[B,D] z .[EB].[=Ec] | .[FBd]f/=e/ .f._e .[FBd]f/=e/ .f._e | %84
[K:C] .[GBd]fef .[ceg] z .[ce].[d^f] | .[ceg]G/^F/ .[EG].[D=F] .[CE]G/^F/ .GA/B/ | %86
 c4 G/A/B/c/ d/e/f/g/ | [EAce]2 [E^GBd]2 c2 d2 | [D^FAc]2 [CFA]2 [B,DG]A/B/ c/d/e/f/ | %89
 g3 f e e2 c | BdAB [B,DG].D.[C^F].[B,G] ||[K:G] .[B,G].[B,D].G.[Ec] .[DB]G/F/ .[CE]._E | %92
 .[B,D]G/B/ .[GBd]g/d/ .[Ec].[CE].[B,^G].[DB] | .[CA]c/e/ .[cea].[EGc] .[^CEGB]E/D/ .[A,C].[CE] | %94
 .[F,A,D]d/^c/ .dF/^E/ .Fd/c/ .d.[Af] | .[Bg].[Bd].[GB].[GBd] .[Fc].[DFA]z.[DFAc] | %96
 .[DGd]B/G/ .[DF].[D=F] .[CE]B/c/ .[Fd].[Ec] | .[DB]E/D/ .[CE][^G,E]/D/ .[A,^C].[CE].[DGB].[=CFA] | %98
 .[B,DG]d/e/ .[Bg].[Af] .[Bg].[cd].[Ad].[Bg] | .[Bg]f/e/ .d.[Ec] .[DB]G/F/ .[CE]._E | %100
 .[B,D]G/B/ .[GBd]g/d/ .[Ec].[CE].[B,^G].[DB] | .[CA]c/e/ .[cea].[EGc] .[^CEGB]E/D/ .[A,C].[CE] | %102
 .[F,A,D]d/^c/ .dF/^E/ .Fd/c/ .d.[Af] | .[Bg].[Bd].[GB].[GBd] .[Fc].[DFA]z.[DFAc] | %104
 .[DGd]B/G/ .[DF].[D=F] .[CE]B/c/ .[Fd].[Ec] | .[DB]E/D/ .[CE][^G,E]/D/ .[A,^C].[CE].[DGB].[=CFA] | %106
 .[B,DG]G/F/ .G.G .AA/^G/ .A=F |[K:Bb] dF FF/{G}D/ DDzB | AG^FF d3 [G=Bd] | %109
 [Gce]2 z [FAc] [FAdf]2 z [DFB] | [=EGc][EGB][CEA][CEG] [CFAc]3 [DF] | %111
 G/B,/E/G/ c/C/=E/G/ A/C/F/A/ d/D/^F/A/ | B/D/G/B/ c/E/G/^c/ d2 f2 | e2 c2 d2 A2 | %114
 BF/=E/ FB/A/ Bd/^c/ dB | F4- Fd/^c/ dB | g6 ga/b/ | [_ABdf] z z [G=Bd]/[GBd]/ [Gce]g[cfa]c' | %118
 [Bdfb]4 z |] %119
V:7
 z3 | .[B,,B,]2 .[C,C]2 .[D,D]2 z2 | .[E,,E,]2 .[G,,G,]2 .[C,C]2 z2 | %3
 z [F,,F,] .[F,,F,]2 z [G,,G,] .[G,,G,]2 | z [C,,C,] .[C,,C,]2 [F,,F,][E,,E,][D,,D,][C,,C,] | %5
 .[B,,B,]2 .[C,C]2 [D,D][B,,B,] [_A,,_A,][G,,G,]/[F,,F,]/ | .[E,,E,]2 .[G,,G,]2 .[C,C]2 [E,E]2 | %7
 [D,D] z .[G,,G,]2 .[C,C]2 .[F,,F,]2 | .[B,,B,]2 z2 z4 | [B,,B,]2 [A,,A,]2 [G,,G,]2 z2 | %10
 [C,C]2 [B,,B,]2 [A,,A,][F,,F,][F,,F,][E,,E,] | [D,,D,]2 [C,,C,]2 [B,,,B,,]2 [G,,G,]2 | %12
 [C,,C,]4 [F,,F,]2 [E,,E,]2 | [D,,D,]2 [C,,C,]2 [B,,,B,,][=B,,,=B,,][C,,C,][D,,D,] | %14
 [E,,E,]2 G,,2 [C,,C,]2 [E,,E,]2 | [D,,D,]2 [G,,,G,,]2 [C,,C,]2 [F,,,F,,]2 | [B,,,B,,]4 z4 | %17
 [B,,B,]2 [A,,A,]2 [G,,G,]2 z2 | [C,C]2 [B,,B,]2 [A,,A,][F,,F,][F,,F,][E,,E,] | %19
 [D,,D,]2 [C,,C,]2 [B,,,B,,]2 [G,,G,]2 | [C,,C,]4 [F,,F,]2 [E,,E,]2 | %21
 [D,,D,]2 [C,,C,]2 [B,,,B,,][=B,,,=B,,][C,,C,][D,,D,] | [E,,E,]2 G,,2 [C,,C,]2 [E,,E,]2 | %23
 [D,,D,]2 [G,,,G,,]2 [C,,C,]2 [F,,,F,,]2 | [B,,,B,,]4 z2 .G,,2 |: .C,2 .F,,2 .B,,2 .G,,2 | %26
 .C,2 .F,,2 .B,,2 .[D,,D,]2 | .[G,,G,]2 .[D,,D,]2 .[G,,G,]2 .[G,,G,]2 | %28
 .[C,C]2 .[C,,C,]2 [F,,F,][E,,E,][D,,D,][C,,C,] | %29
 [D,,D,]2 [C,,C,]2 [B,,,B,,][=B,,,=B,,][C,,C,][D,,D,] | [E,,E,]2 G,,2 [C,,C,]2 [E,,E,]2 | %31
 [D,,D,]2 [G,,,G,,]2 [C,,C,]2 [F,,,F,,]2 |1 [B,,,B,,]4 z2 .G,,2 :|2 [B,,B,]4 z4 || z8 | z8 | z8 | %37
 z8 | z8 | z8 | z8 | z8 | [B,,B,]2 [A,,A,]2 [G,,G,]2 z2 | %43
 [C,C]2 [B,,B,]2 [A,,A,][F,,F,][F,,F,][E,,E,] | [D,,D,]2 [C,,C,]2 [B,,,B,,]2 [G,,G,]2 | %45
 [C,,C,]4 [F,,F,]2 [E,,E,]2 | [D,,D,]2 [C,,C,]2 [B,,,B,,][=B,,,=B,,][C,,C,][D,,D,] | %47
 [E,,E,]2 G,,2 [C,,C,]2 [E,,E,]2 | [D,,D,]2 [G,,,G,,]2 [C,,C,]2 [F,,,F,,]2 | [B,,,B,,]6 z F, | %50
 DF, F,F,/{G,}D,/ D,D,zB, | A,G,^F,F, D3 [G,,G,] | [C,C]2 [F,,F,][E,,E,] [D,,D,]2 [G,,G,]2 | %53
 [C,C]2 [C,,C,]2 [F,,F,]3 B,, | E,2 C,2 F,2 D,2 | G,2 E,2 z [D,,D,] .[G,,G,]2 | %56
 z [C,,C,] .[C,,C,]2 z [F,,F,] .[F,,F,]2 | d3 c BB-Bc | B2 G2 F4 | [B,,B,]8- | %60
 [B,,B,]4 [A,,A,]2 [D,,D,]2 | [G,,G,]2 [^F,,^F,]2 [=F,,=F,]4 | %62
 [=E,,=E,]4 [_E,,_E,]E,/F,/ G,/A,/B,/C/ | [D,D]2 [C,C]2 [B,,B,]2 [E,,E,]2 | %64
 [F,,F,]2 [F,,,F,,]2 .[B,,,B,,]2 .[F,,,F,,]2 | .[B,,B,]2 .[F,,F,]2 .[B,,B,]2 .[E,,E,]2 | %66
 .[B,,B,]2 .[F,,F,]2 .[B,,B,].[A,,A,].[G,,G,].[_G,,_G,] | .[F,,F,]2 .[C,,C,]2 .[F,,F,]2 .[C,,C,]2 | %68
 .[B,,B,]2 .[F,,F,]2 .[B,,B,].[F,,F,].[G,,G,].[A,,A,] | .[B,,B,]2 .[F,,F,]2 .[B,,B,]2 .[E,,E,]2 | %70
 .[B,,B,]2 .[F,,F,]2 .[B,,B,].[A,,A,].[G,,G,].[_G,,_G,] | .[F,,F,]2 .[C,,C,]2 .[F,,F,]2 .[C,,C,]2 | %72
 .[B,,B,]2 .[F,,F,]2 .[B,,B,]2 .[F,,F,]2 | .[B,,B,]2 .[F,,F,]2 .[B,,B,]2 .[E,,E,]2 | %74
 .[B,,B,]2 .[F,,F,]2 .[B,,B,].[A,,A,].[G,,G,].[_G,,_G,] | .[F,,F,]2 .[C,,C,]2 .[F,,F,]2 .[C,,C,]2 | %76
 .[B,,B,]2 .[F,,F,]2 .[B,,B,].[F,,F,].[G,,G,].[A,,A,] | .[B,,B,]2 .[F,,F,]2 .[B,,B,]2 .[E,,E,]2 | %78
 .[B,,B,]2 .[F,,F,]2 .[B,,B,].[A,,A,].[G,,G,].[_G,,_G,] | .[F,,F,]2 .[C,,C,]2 .[F,,F,]2 .[C,,C,]2 | %80
 .[B,,B,]2 .[F,,F,]2 .[B,,B,]2 .[F,,F,]2 | .[B,,B,]2 .[F,,F,]2 .[B,,B,]2 .[F,,F,]2 | %82
 .[E,,E,]2 .[G,,G,]2 .[B,,B,] z .[G,,G,].[_G,,_G,] | .[F,,F,]2 z2 .[F,,F,]2 z2 | %84
[K:C] .[G,,G,]2 z2 .[G,,G,] z .[A,,A,].[_A,,_A,] | .[G,,G,]2 z2 .[G,,G,]2 z2 | %86
 [C,,C,]4 G,/F,/E,/D,/ C,/B,,/A,,/G,,/ | [A,,A,]2 [^G,,^G,]2 [=G,,=G,]4 | %88
 [^F,,^F,]4 [=F,,=F,]F,/G,/ A,/B,/C/D/ | [E,E]2 [D,D]2 [C,C]2 [C,,C,]2 | %90
 [D,,D,]2 [D,,D,]2 [G,,G,].[D,,D,].[D,,D,].[G,,G,] || %91
[K:G] .[G,,G,]2 .[D,,D,]2 .[G,,G,]2 .[D,,D,]2 | .[G,,G,]2 .[D,,D,]2 .[C,,C,]2 .[B,,,B,,]2 | %93
 .[A,,A,]2 .[E,,E,]2 .[A,,A,]2 .[A,,,A,,]2 | %94
 .[D,,D,]2 .[A,,,A,,]2 .[D,,D,].[C,,C,].[B,,,B,,].[A,,,A,,] | %95
 .[G,,G,]2 .[D,,D,]2 .[A,,A,]2 .[D,,D,]2 | .[B,,B,]2 .[D,,D,]2 .[C,C].[C,,C,].[B,,,B,,].[C,,C,] | %97
 .[D,,D,]2 .[E,,E,]2 .[A,,A,]2 .[D,,D,]2 | .[G,,G,]2 .[D,,D,]2 .[G,,G,].[D,,D,].[D,,D,].[G,,G,] | %99
 .[G,,G,]2 .[D,,D,]2 .[G,,G,]2 .[D,,D,]2 | .[G,,G,]2 .[D,,D,]2 .[C,,C,]2 .[B,,,B,,]2 | %101
 .[A,,A,]2 .[E,,E,]2 .[A,,A,]2 .[A,,,A,,]2 | %102
 .[D,,D,]2 .[A,,,A,,]2 .[D,,D,].[C,,C,].[B,,,B,,].[A,,,A,,] | %103
 .[G,,G,]2 .[D,,D,]2 .[A,,A,]2 .[D,,D,]2 | .[B,,B,]2 .[D,,D,]2 .[C,C].[C,,C,].[B,,,B,,].[C,,C,] | %105
 .[D,,D,]2 .[E,,E,]2 .[A,,A,]2 .[D,,D,]2 | %106
 .[G,,G,][G,,G,]/[F,,F,]/ .[G,,G,].[G,,G,] .[A,,A,][A,,A,]/[^G,,^G,]/ .[A,,A,][=F,,=F,] | %107
[K:Bb] DF, F,F,/{G,}D,/ D,D,zB, | A,G,^F,F, D3 [G,,G,] | [C,C]2 [F,,F,][E,,E,] [D,,D,]2 [G,,G,]2 | %110
 [C,C]2 [C,,C,]2 [F,,F,]3 B,, | E,2 C,2 F,2 D,2 | G,2 E,2 z [D,,D,] .[G,,G,]2 | %113
 z [C,,C,] .[C,,C,]2 z [F,,F,] .[F,,F,]2 | [B,,B,]4 z4 | .[B,,B,]2 .[C,C]2 .[D,D]2 z2 | %116
 .[E,,E,]2 .[G,,G,]2 .[C,C]2 [E,E]2 | [D,D] z .[G,,G,]2 .[C,C]2 .[F,,F,]2 | [B,,B,]4 z |] %119
V:8
 x3 | .[B,D]2 .[A,CE]2 .[B,D]2 x2 | .[B,E]2 .[=B,DF]2 .[CE]2 x2 | x [FB] .[FB]2 x [DG] .[DG]2 | %4
 x [C=E] .[CE]2 [CF]3 A | .[FBd]2 .[FAc]2 .[FBd]2 x =B/B/ | .[Gce]2 .[G=Bdf]2 .[Gce]2 [_Be]2 | x8 | %8
 x8 | [FB]2 [^FAc]2 [GB]=FED | [Gc]2 [GB]2 [FA]2 x2 | x8 | x8 | [FB]2 [FA]2 [FB] x3 | %14
 [GBe]2 [G=Bd]2 [Gce]2 x2 | x8 | [DF][EG][DF][CE] [B,D] x3 | [FB]2 [^FAc]2 [GB]=FED | %18
 [Gc]2 [GB]2 [FA]2 x2 | x8 | x8 | [FB]2 [FA]2 [FB] x3 | [GBe]2 [G=Bd]2 [Gce]2 x2 | x8 | %24
 [DF][EG][DF][CE] [B,D]2 x2 |: x8 | x8 | x8 | x8 | [FB]2 [FA]2 [FB] x3 | [GBe]2 [G=Bd]2 [Gce]2 x2 | %31
 x8 |1 [DF][EG][DF][CE] [B,D] z x2 :|2 [DF][EG][DF][CE] [B,D] x3 || x8 | x8 | x8 | x8 | x8 | x8 | %40
 x8 | x8 | [FB]2 [^FAc]2 [GB]=FED | [Gc]2 [GB]2 [FA]2 x2 | x8 | x8 | [FB]2 [FA]2 [FB] x3 | %47
 [GBe]2 [G=Bd]2 [Gce]2 x2 | x8 | [DF][EG][DF][CE] [B,D]2 x2 | x8 | x8 | x8 | x8 | x8 | %55
 x5 [^FA] .[G=B]2 | z [Gc] .[=EG]2 z [FB] .[C_EF]2 | x8 | x8 | x8 | x8 | x4 [D=F]4 | x8 | %63
 [FBd]2 [FAc]2 [FB]3 [GB] | [FB]2 [EA]2 x4 | x8 | x8 | x8 | x8 | x8 | x8 | x8 | x8 | x8 | x8 | x8 | %76
 x8 | x8 | x8 | x8 | x8 | x8 | x8 | x8 |[K:C] x8 | x8 | x8 | x4 [E=G]4 | x8 | %89
 [Gce]2 [GBd]2 [Gc]3 [EG] | [DG]2 [C^F]2 x4 ||[K:G] x8 | x8 | x8 | x8 | x8 | x8 | x8 | x8 | x8 | %100
 x8 | x8 | x8 | x8 | x8 | x8 | x8 |[K:Bb] x8 | x8 | x8 | x8 | x8 | x5 [^FA] .[G=B]2 | %113
 z [Gc] .[=EG]2 z [FB] .[C_EF]2 | x8 | .[B,D]2 .[A,CE]2 .[B,D]2 x2 | %116
 .[Gce]2 .[G=Bdf]2 .[Gce]2 [_Be]2 | x8 | x5 |] %119

